app/public/logos/usdc.svg

<svg xmlns="http://www.w3.org/2000/svg" width="350pt" height="350pt" style="isolation:isolate" viewBox="0 0 350 350"><defs><clipPath id="a"><path d="M0 0h350v350H0z"/></clipPath></defs><g clip-path="url(#a)"><path d="M0 0h350v350H0z" style="fill:#2674ca"/><g fill="#FFF"><path d="M223.125 202.708c0-25.52-15.312-34.27-45.937-37.916-21.875-2.917-26.25-8.75-26.25-18.959 0-10.21 7.292-16.77 21.875-16.77 13.125 0 20.417 4.375 24.062 15.312.73 2.188 2.917 3.645 5.105 3.645h11.665c2.918 0 5.105-2.187 5.105-5.103v-.729c-2.917-16.043-16.042-28.438-32.812-29.896v-17.5c0-2.917-2.188-5.104-5.833-5.834h-10.938c-2.917 0-5.104 2.187-5.834 5.834v16.771c-21.875 2.917-35.728 17.5-35.728 35.729 0 24.063 14.583 33.541 45.208 37.188 20.417 3.645 26.979 8.02 26.979 19.687s-10.209 19.688-24.062 19.688c-18.96 0-25.522-8.022-27.71-18.96-.728-2.915-2.915-4.375-5.103-4.375H130.52c-2.915 0-5.103 2.188-5.103 5.105v.73c2.916 18.228 14.583 31.353 38.646 35v17.5c0 2.915 2.187 5.103 5.832 5.833h10.938c2.917 0 5.105-2.188 5.834-5.833v-17.5c21.875-3.647 36.458-18.96 36.458-38.647"/><path d="M137.813 279.27c-56.876-20.415-86.043-83.853-64.896-140 10.938-30.625 35-53.957 64.896-64.895 2.917-1.458 4.375-3.645 4.375-7.292V56.875c0-2.917-1.458-5.105-4.375-5.833-.73 0-2.188 0-2.918.728-69.27 21.875-107.187 95.522-85.312 164.793 13.125 40.832 44.479 72.187 85.312 85.312 2.918 1.458 5.835 0 6.563-2.917.73-.728.73-1.458.73-2.916v-10.209c0-2.188-2.188-5.103-4.375-6.563m77.292-227.5c-2.917-1.457-5.835 0-6.563 2.918-.729.729-.729 1.457-.729 2.917v10.208c0 2.917 2.187 5.832 4.375 7.292 56.875 20.415 86.042 83.853 64.895 140-10.938 30.625-35 53.958-64.895 64.895-2.918 1.458-4.375 3.645-4.375 7.292V297.5c0 2.917 1.457 5.105 4.375 5.833.729 0 2.187 0 2.917-.728 69.27-21.875 107.187-95.522 85.312-164.792-13.125-41.563-45.209-72.918-85.312-86.043"/></g></g></svg>

<?xml version="1.0" encoding="UTF-8" standalone="no"?><!-- Generator: Gravit.io --><svg xmlns="http://www.w3.org/2000/svg" xmlns:xlink="http://www.w3.org/1999/xlink" style="isolation:isolate" viewBox="0 0 350 350" width="350pt" height="350pt"><defs><clipPath id="_clipPath_rltwiRfluiDJzgMyFJKbJh9iJwbOkipp"><rect width="350" height="350"/></clipPath></defs><g clip-path="url(#_clipPath_rltwiRfluiDJzgMyFJKbJh9iJwbOkipp)"><rect width="350" height="350" style="fill:rgb(38,116,202)"/><g><path d=" M 223.125 202.708 C 223.125 177.188 207.813 168.438 177.188 164.792 C 155.313 161.875 150.938 156.042 150.938 145.833 C 150.938 135.623 158.23 129.063 172.813 129.063 C 185.938 129.063 193.23 133.438 196.875 144.375 C 197.605 146.563 199.792 148.02 201.98 148.02 L 213.645 148.02 C 216.563 148.02 218.75 145.833 218.75 142.917 L 218.75 142.188 C 215.833 126.145 202.708 113.75 185.938 112.292 L 185.938 94.792 C 185.938 91.875 183.75 89.688 180.105 88.958 L 169.167 88.958 C 166.25 88.958 164.063 91.145 163.333 94.792 L 163.333 111.563 C 141.458 114.48 127.605 129.063 127.605 147.292 C 127.605 171.355 142.188 180.833 172.813 184.48 C 193.23 188.125 199.792 192.5 199.792 204.167 C 199.792 215.834 189.583 223.855 175.73 223.855 C 156.77 223.855 150.208 215.833 148.02 204.895 C 147.292 201.98 145.105 200.52 142.917 200.52 L 130.52 200.52 C 127.605 200.52 125.417 202.708 125.417 205.625 L 125.417 206.355 C 128.333 224.583 140 237.708 164.063 241.355 L 164.063 258.855 C 164.063 261.77 166.25 263.958 169.895 264.688 L 180.833 264.688 C 183.75 264.688 185.938 262.5 186.667 258.855 L 186.667 241.355 C 208.542 237.708 223.125 222.395 223.125 202.708 L 223.125 202.708 Z " fill="rgb(255,255,255)"/><path d=" M 137.813 279.27 C 80.937 258.855 51.77 195.417 72.917 139.27 C 83.855 108.645 107.917 85.313 137.813 74.375 C 140.73 72.917 142.188 70.73 142.188 67.083 L 142.188 56.875 C 142.188 53.958 140.73 51.77 137.813 51.042 C 137.083 51.042 135.625 51.042 134.895 51.77 C 65.625 73.645 27.708 147.292 49.583 216.563 C 62.708 257.395 94.062 288.75 134.895 301.875 C 137.813 303.333 140.73 301.875 141.458 298.958 C 142.188 298.23 142.188 297.5 142.188 296.042 L 142.188 285.833 C 142.188 283.645 140 280.73 137.813 279.27 Z  M 215.105 51.77 C 212.188 50.313 209.27 51.77 208.542 54.688 C 207.813 55.417 207.813 56.145 207.813 57.605 L 207.813 67.813 C 207.813 70.73 210 73.645 212.188 75.105 C 269.063 95.52 298.23 158.958 277.083 215.105 C 266.145 245.73 242.083 269.063 212.188 280 C 209.27 281.458 207.813 283.645 207.813 287.292 L 207.813 297.5 C 207.813 300.417 209.27 302.605 212.188 303.333 C 212.917 303.333 214.375 303.333 215.105 302.605 C 284.375 280.73 322.292 207.083 300.417 137.813 C 287.292 96.25 255.208 64.895 215.105 51.77 L 215.105 51.77 Z " fill="rgb(255,255,255)"/></g></g></svg>
